X:1
T:Ballatetta
T:Ballatetta
T:Arrigo Boito
T:Dante Alighieri
T:CPDL #35823 - Contributor: Paolo Pandolfo
C:Arrigo Boito
Z:Dante Alighieri
Z:CPDL #35823 - Contributor: Paolo Pandolfo
%%score 1 2 { ( 3 5 ) | 4 }
L:1/8
Q:1/4=88
M:2/4
K:D
V:1 treble nm="Contralto"
V:2 treble nm="I Voce"
V:3 treble nm="Piano"
V:5 treble 
V:4 bass 
V:1
"^Allegretto""^II Voce" z4 | z4 |!p! F4 | G A G F | E2 A G | F3 !breath!F | (DC) (B,D) | E2 E F | %8
w: ||Per|u\- na ghir\- lan\-|det\- ta ch'io|vi\- di|mi _ fa\- _|rà sos\- pi\-|
"^I Voce" z4 | z4 |!p! c4 | d e d c | B2 e d | c3 !breath!B | (A^G) (FA) | B2 B c | d2 c B | %17
w: ||Per|u\- na ghir\- lan\-|det\- ta ch'io|vi\- di|mi _ fa\- _|rà sos\- pi\-|rar o\- gni|
 c !breath!d!<(! (ce-!<)! |!>(! eA (d)c) | (B3 !breath!A)!>)! | (GB) (cB) | (AB) (A!breath!G) | %22
w: fio\- re so\- _|_ _ spi\- _|rar *|||
 (FA) (BA) | (GAGF) |"^poco rall," (EG) (AG) |"^a tempo" F2 z2 | z4 | z4 | z4 | z4 | z4!D.C.! |] %31
w: |||||||||
V:2
 z4 | z4 | z4 | z4 | z4 | z4 | z4 | z4 |"^II Voce" !breath!G2 F E |!<(! (FA^GB!<)! |!>(! ABA=G) | %11
w: ||||||||rar o\- gni|fio\- _ _ _|_ _ _ _|
 !breath!F4!>)! | (^GE) (FG) | (ABA!breath!^G) | (FE) (DC) | (DEDC) | B,2 E2 | A,2 A!breath!=G | %18
w: re|so\- _ spi\- _|rar _ _ _|so\- _ spi\- _|rar _ _ _|o\- gni|fio\- re _|
 F4 | G A G F | E2 A G | F3 !breath!E | (DC) (B,C) | !breath!E2 E F | D2 F E | D2 z2 | z4 | z4 | %28
w: Per|u\- na ghir\- lan\-|det\- ta ch'io|vi\- di|mi _ fa\- _|rà sos\- pi\-|rar o\- gni|fior.|||
 z4 | z4 | z4 |] %31
w: |||
V:3
 [FAd] z [FBd] z | [FAd]!p! z [FBd] z | [FAd] z [FBd] z | [GBd] z [GBe] z | [Ace] z [Acf][Bdg] | %5
 !>![Adfa].[eg] .[df] z | [FBd] z [GBd] z | [GBe] z [Ace][Adf] | [Beg] z ag | [df] z ed | %10
 [Ac] z z2 | [DFB] z z2 | [E^GB] z z2 | [EAc] z z2 | [FAc] z z2 | [DFB] z z2 | z2 [D^G]2 | %17
 [CA]2 A=G | [DF] z z2 | [EG] z z2 | [CE] z z2 | [DF] z z2 | [B,D] z z2 | [CE] z z2 | [A,C] z z2 | %25
 [FAd] z [FBd] z | [GBd] z [GBe] z | [Ace] z .[Acf].[Bdg] | !>![Adfa].[eg] .[df] z | %29
 [FBd] z [GBd] z | [GBe] z [Ace][Adf] |] %31
V:4
 .D.C.B,.A, | .D.C.B,.A, | .D.C.B,.A, | .G,.F,.E,.D, | .C,.B,, .A,, z | D, z .D.C | .B,.A,.G,.F, | %7
 .E,.D,.C,.B,, | [E,,E,] z A,, z | D, z E, z | [A,,E,A,] z z2 | [B,,B,] z z2 | [E,B,] z z2 | %13
 [A,,A,] z z2 | [F,C] z z2 | [B,,F,B,] z z2 | z2 E,2 | [A,,A,]4- | [A,,A,]A, A,,2- | A,,A, A,,2- | %20
 A,,A, A,,2- | A,,A, A,,2- | A,,A, A,,2- | A,,A, A,,2- |"^poco rall." A,,A, A,,2 | %25
"^a tempo" .[D,D].C.B,.A, | .G,.F,.E,.D, | .C,.B,, .A,, z | D, z .D.C | .B,.A,.G,.F, | %30
 .E,.D,.C,.B,, |] %31
V:5
 x4 | x4 | x4 | x4 | x4 | x4 | x4 | x4 | x2 c2 | x2 ^G2 | x4 | x4 | x4 | x4 | x4 | x4 | x4 | x4 | %18
 x4 | x4 | x4 | x4 | x4 | x4 | x4 | x4 | x4 | x4 | x4 | x4 | x4 |] %31

